src/distro-icons/regolith.svg

<svg width="512" height="512" fill="none" xmlns="http://www.w3.org/2000/svg">
<circle cx="256" cy="256" r="256" fill="#fff"/>
<path d="M271.466 65A191.387 191.387 0 0 0 80.081 256.385c.12 12.004 1.37 23.97 3.732 35.741l-1.289-5.251c-70.546 49.084-76.455 98.024 31.602 78.473l.045-.018a1483.809 1483.809 0 0 0 25.999-7.942c3.633-1.145 7.254-2.309 10.87-3.487a1334.676 1334.676 0 0 0 24.652-8.271l.748-.254a1193.623 1193.623 0 0 0 58.988-22.201c.377-.15.76-.287 1.137-.44.018 0 .03 0 .051-.006l-.024-.03c32.466-13.268 63.306-27.655 93.069-43.411a41.867 41.867 0 0 0 23.953 7.539 41.868 41.868 0 0 0 41.866-41.866c0-1.234-.055-2.467-.165-3.696 28.618-18.044 56.593-37.652 84.509-59.096 3.827-7.248-1.534-24.608-18.316-20.29-24.952 20.251-50.777 38.334-77.179 54.638a41.874 41.874 0 0 0-30.715-13.421 41.866 41.866 0 0 0-41.865 41.865c.009 3.667.5 7.317 1.459 10.855-31.889 15.784-64.212 29.599-96.505 42.045a142.038 142.038 0 0 1-23.31-77.11A142.045 142.045 0 0 1 335.436 78.708c2.553 0 5.106.07 7.655.21A191.38 191.38 0 0 0 271.466 65Zm188.487 223.926a142.044 142.044 0 0 1-124.514 73.871 142.04 142.04 0 0 1-81.769-25.944l-.018.036c-36.946 15.098-75.51 30.212-126.314 45.415a191.389 191.389 0 0 0 144.128 65.468 191.381 191.381 0 0 0 188.487-158.849v.003ZM88.66 311.79a191.376 191.376 0 0 0 10.377 26.845l-.329.105c-54.951 13.301-23.998-7.273-8.744-21.651l-1.304-5.299Z" fill="#DC322F"/>
</svg>

<svg width="512" height="512" viewBox="0 0 512 512" fill="none" xmlns="http://www.w3.org/2000/svg">
<circle cx="256" cy="256" r="256" fill="white"/>
<path d="M271.466 65C220.707 65 172.028 85.1637 136.136 121.055C100.245 156.947 80.0809 205.626 80.0809 256.385C80.2012 268.389 81.4507 280.355 83.8129 292.126L82.5241 286.875C11.9779 335.959 6.06887 384.899 114.126 365.348L114.171 365.33C122.966 362.729 131.629 360.085 140.17 357.388C143.803 356.243 147.424 355.079 151.04 353.901C159.284 351.224 167.502 348.467 175.692 345.63L176.44 345.376C196.295 338.496 215.965 331.093 235.428 323.175C235.805 323.025 236.188 322.888 236.565 322.735C236.583 322.735 236.595 322.735 236.616 322.729C236.608 322.719 236.6 322.709 236.592 322.699C269.058 309.431 299.898 295.044 329.661 279.288C336.686 284.193 345.047 286.824 353.614 286.827C364.718 286.827 375.366 282.416 383.218 274.565C391.069 266.713 395.48 256.065 395.48 244.961C395.48 243.727 395.425 242.494 395.315 241.265C423.933 223.221 451.908 203.613 479.824 182.169C483.651 174.921 478.29 157.561 461.508 161.879C436.556 182.13 410.731 200.213 384.329 216.517C380.41 212.285 375.659 208.908 370.373 206.598C365.088 204.289 359.382 203.097 353.614 203.096C342.511 203.096 331.862 207.507 324.011 215.358C316.16 223.209 311.749 233.858 311.749 244.961C311.758 248.628 312.249 252.278 313.208 255.816C281.319 271.6 248.996 285.415 216.703 297.861C201.654 274.946 193.559 248.165 193.393 220.751C193.393 183.079 208.358 146.95 234.996 120.311C261.634 93.6732 297.764 78.7079 335.436 78.7079C337.989 78.7089 340.542 78.7787 343.091 78.9172C320.33 69.7277 296.012 65.0028 271.466 65V65ZM459.953 288.926C447.728 311.272 429.72 329.92 407.814 342.916C385.908 355.912 360.91 362.779 335.439 362.797C306.16 362.783 277.601 353.722 253.67 336.853C253.664 336.865 253.658 336.877 253.652 336.889C216.706 351.987 178.142 367.101 127.338 382.304C145.302 402.866 167.457 419.346 192.316 430.638C217.175 441.93 244.162 447.772 271.466 447.772C316.563 447.746 360.203 431.795 394.687 402.733C429.172 373.671 452.286 333.364 459.953 288.923V288.926ZM88.6603 311.79C91.4405 320.986 94.9092 329.96 99.037 338.635L98.708 338.74C43.7567 352.041 74.7102 331.467 89.9641 317.089L88.6603 311.79Z" fill="#DC322F"/>
</svg>
